!!!OTL: STOSST AN LEIPZIG SOLL LEBEN
!!!ARE: Europa, Mitteleuropa, Deutschland
!!!SCT: F0521
!!!YEM: Copyright 1995, estate of Helmut Schaffrath.
**kern
*ICvox
*Ivox
*M6/8
*k[f#]
*G:
{8d
=1
4.g
8.b
16a
8g
=2
4.a
8dd
16r
16cc
8a
=3
4.b
4r}
{8d
=4
4.g
8.b
16a
8g
=5
4.a
8dd
16r
16cc
8a
=6
4.b
4r}
{16g
16b
=7
4dd
8dd
8.dd
16ee
8dd
=8
8dd
8cc
8cc
4cc}
{8a
=9
4b
8dd
8.gg
16dd
8b
=10
8b
8a
8a
4.a}
=11
{8g
8g
8g
4.b
=12
8a
8g
8a
4g}
{16g
16b
=13
4dd
8dd
8.dd
16ee
8dd
=14
8dd
8cc
8cc
4cc}
{8a
=15
4b
8dd
8.gg
16dd
8b
=16
8b
8a
8a
4.a}
=17
{8g
8g
8g
4.b
=18
8a
8g
8a
4g}
==
!!!AGN: Studenten -, Burschenschafts - Lied
!!!ONB: ESAC (Essen Associative Code) Database: FINK
!!!AMT: compound duple
!!!AIN: vox
!!!EED: Helmut Schaffrath
!!!EEV: 1.0
*-
